X: 32050
T: Peggy's Pub
R: hornpipe
M: 4/4
K: Fmajor
d>c|B2 B>d c2 c>B|A>BA>G F2 G>A|B>AB>c d>cB>A|G>FE>D C2
d>c|B2 B>d c2 c>B|A>BA>G F2 G>A|B>AG>F E>GF>E|D2 d2 D2:|
(3A,B,=B,|C2 C>D E2 E>F|G2 A2 G>EC>E|D>CD>E F>EF>G|A2 B2 A>GF>D|
C2 C>D E2 E>F|G>EC>E c2 D>E|F>AG>B A>GF>E|D2 d2 D2:|

